X:1
T:Coingié m'aves donné
T:Coingié m'aves donné
T:Tylman Susato
C:Tylman Susato
%%score [ 1 2 [ 3 4 ] ]
L:1/8
Q:1/4=120
M:2/2
K:F
V:1 treble nm="Soprano" snm="S"
V:2 treble nm="Alto" snm="A"
V:3 treble-8 nm="Tenor 1" snm="T 1"
V:4 treble-8 nm="Tenor 2" snm="T 2"
V:1
 G6 G2 | B2 B2 A2 G2 | A3 G/F/ G4 | F8 | z8 | F4 B3 c | de f2 e2 d2- | d2 cB A2 d2- | d2 c2 d4- | %9
w: Coin- gié|m'a- ves don- *||né||et pour- *|* * vous _ _|_ _ _ _ je|_ l'ay prins|
 d4 z4 | z4 z2 c2 | d2 d2 f3 e | dc d2 c2 f2- | f2 e2 f4 | z4 z2 c2 | d2 f3 e e2 | d2 c2 z2 F2 | %17
w: _|je|suis ha- ban- *|* * don- * *|* * né|et|si n'ay- _ riens|mes- prins et|
 G2 A2 B2 c2- | cB B4 A2 | B3 A/G/ F2 B2 | B2 B2 A4 | G2 FE D4 | z2 d2 d2 d2 | c4 B4- | %24
w: si n'ay riens mes-||* * * prins mon-|cueur a- vez|prins _ _ _|mon ceur a-|vez prins|
 B2 AG F2 A2 | B2 B2 A3 G/F/ | GFED E4 | D4 z2 d2 | d2 d2 f4- | f2 ed c2 f2 | e2 d4 cB | A2 d4 c2 | %32
w: _ _ _ _ le|te- nant en _ _|_ _ _ _ vous|las tout|c'es que j'ay|_ ap- * * *|||
 d8 | z4 d4- | d2 c2 B2 A2- | AG G3 F/E/ F2 | G8- | G8- | G8- | G8- | G8 |] %41
w: prins|c'est|_ de di- *|* * * * * re'hel-|las.|_||||
V:2
 G,6 G,2 |"^b" D6 B,2 | C2 D2 G,4 | A,6 F,2 | B,3 C DE F2- | FG A2 GABG | A6 F2 | G2 A4 G2 | %8
w: Coin- gié|m'a- ves|don- * né|pour _|_ _ _ _ vous|_ _ _ _ _ _ _|* je|l'ay _ _|
 A4 z2 A2 | A2 A2 B2 A2 | GF B4 A2 | B4 z2 C2 | D2 F2 E2 D2 | C4 z2 F2 | G2 B3 A A2 | G2 F2 G4 | %16
w: prins je|suis ha- ban- don-||né et|si n'ay riens mes-|prins et|si n'ay- _ riens|mes- * *|
 F4 z4 | z2 F2 G2 A2 | D3 E F2 F2 | D4 z2 G2 | F2 F2 F4 | D6 D/C/D/E/ | F8 | C4 D4- | D2 D2 D2 C2 | %25
w: prins|et si n'ay|riens _ _ mes-|prins mon|cueur a- vez|prins _ _ _ _|_|le te-|nant en vous _|
 B,A,B,C D4 | z4 G4 | G2 G2 B4- | B2 AG F3 G | A4 A,4 | A,2 A,2 D3 E | F2 G2 A4 | A6 G2 | %33
w: _ _ _ _ [las]|Tout|c'est que j'ay|_ ap _ prins _|_ tout|c'est que j'ay _|_ ap- prins|c'est de|
 F2 E2 D4 | G4 z2 D2- |"^#" D2 C2 D4 | D2 C2 B,2 A,2 | G,4 D4 | G6 F2 | _E2 C2 E4 | D8 |] %41
w: di- * re'hel-|las c'est|_ de di-||re'hel- las,|c'est de|di- * re'hel-|las.|
V:3
 d6 d2 | g2 g2 f2 e2- |"^#" ed d4 c2 | d8 | G4 B3 c |"^b" de f2 g4 | f3 e/d/ c2 d2 | d3 e f2 g2 | %8
w: Coin- gié|m'a- ves don- *||né|et pour _|_ _ vous _|_ _ _ _ je|l'ay _ _ _|
 e4 d4- |"^b" d4 z4 | z8 | z2 g2 a2 a2 | b3 a g2 f2 | g4 f3 e/d/ | c2 B2 F4 | B4 z2 c2 | %16
w: _ prins|_||Je suis ha-|ban- * * don-|||né et|
 d2 f2 e2 d2 | c2 F2 B2 A2 | Bcdc c2 c2 | B4 d4 | d2 d2 c4 | B6 AG | F2 B2 B2 B2 | A4 G3 F | %24
w: si n'ay riens mes-|prins et si n'ay|riens _ _ _ _ mes-|prins mon|cueur- a- vez|prins _ _|_ mon cueur a-|vez prins _|
 GABc d2 f2 | g2 g2 f3 e/d/ | e2 d4 c2 | d8 | z2 d2 d2 d2 | f6 ed | c2 d2 A2 f2- | f2 ed e4 | %32
w: _ _ _ _ _ le|te- nant en _ _|_ _ vous|las|tout c'est que|j'ay ap- *|||
 d4 z4 | d6 c2 | B2 A2 G2 F2 | G4 A4 | G8 | d6 c2 | B2 A2 G4 | c8 | B8 |] %41
w: prins|c'est de|di- * * *|re'hel- *|las|c'est de|di- * *|re'hel-|las.|
V:4
 z4 G4- | G2 G2 D2 G2 |"^#" F3 E/D/ E4 | D8 | d6 d2 | d4 e4 | d3 c A2 B2 | G2 d3 c B2 | A4 D4 | %9
w: Coin-|* gié m'a- ves|don- * * *|né|et pour|vous je|l'ay _ _ prins|_ _ _ _||
 z2 d2 d2 d2 | e4 c4 | B3 A/G/ F4 | B4 z4 | z2 c2 d2 f2 | e2 d2 c3 B | G2 d2 c4 | z2 F2 G2 B2- | %17
w: je suis ha-|ban- don-||né|et si n'ay|riens mes- * *|* * prins|st si n'ay|
 B2 A2 G2 F2 | G4 F4 | G3 A B2 G2 | B2 B2 F4 | G6 FE | D4 z4 | F4 B4- | B2 B2 B2 A2 | G3 F D4 | %26
w: _ riens mes- *||prins- * * mon|cueur a- vez|prins _ _|_|le te-|* nant en vous|las _ _|
"^#" z8 | G4 G2 G2 | B6 AG |"^#""^#" F4 F3 G | A2 D2 D2 D2 | A2 B2 A4 | z4 d4- | d2 c2 B2 A2 | %34
w: |tout c'est que|j'ay ap- *|* prins _|_ tout c'est que|j'ay ap- prins|c'est|_ de di- *|
 G6 D2 | E4 D4 | d6 c2 | B2 A2 G4- |"^b" G2 F2 E2 D2 | C8 | G8 |] %41
w: * re'hel-|las _|C'est de|di- * *||re'hel-|las.|

